!!!!SEGMENT: pl-kk--kk-i-88--003-001_golabek-jakub--missa-3-kyrie.krn
!!!cenid: 17xx:2582
!!!COM: Gołąbek, Jakub
!!!COM-rismID: pe30008748
!!!CDT: 1739-1789/03/30
!!!CNT: Polish
!!!OPR: Missa 3
!!!OTL: Kyrie
!!!OMV: 001
!!!PDT:
!!!AGN: Sacred; Mass
!!!YEC: Copyright 2022 Narodowy Instytut Fryderyka Chopina (https://polishscores.org)
!!!YEM: License CC-BY-4.0 (https://creativecommons.org/licenses/by/4.0)
!!!SMS-siglum: PL-Kk
!!!SMS-shelfmark: Kk.I.88
!!!SMS-variant:
!!!SMS-altvar:
!!!SMS-shelfwork: 003-001 M
!!!NIFC-rismSourceID: 1001164072
!!!NIFC-rismChildID: 1001164082
!!!NIFC-islandoraID:
!!!URL-pdf-islandora: https://repozytorium.nifc.pl/islandora/object/pl-kk%3A3086/datastream/PDF/view
!!!URL-scan: https://polish.musicsources.pl/pl/lokalizacje/galeria/rekopisy/6148-missa/4 @EN{Scan on Polish Music Sources Website} @PL{Skany w portalu Dziedzictwo Muzyki Polskiej w otwartym dostępie}
!!!IIIF:
!!!ONB-nifc: UWAGA: C - f. 6r-7v; A - f. 14r-15v; T - f. 22r-23v; B - f. 30r-31v; B rip - f. 35r-36v. Proszę uwzględniać B rip. Części Mszy: 1. Kyrie, 2. Christe, 3. Et in terra, 4. Quoniam, 5. Sanctus, 6. Osanna, 7. Benedictus, 8. Agnus Dei.
!!!OMD: allegro
!!!AIN: 1 alto 2 bass 1 canto 1 tenor
!!!key: C
**kern	**text	**dynam	**kern	**text	**dynam	**kern	**text	**dynam	**kern	**text	**dynam	**kern	**text	**dynam
*part5	*part5	*part5	*part4	*part4	*part4	*part3	*part3	*part3	*part2	*part2	*part2	*part1	*part1	*part1
*staff5	*staff5	*	*staff4	*staff4	*	*staff3	*staff3	*	*staff2	*staff2	*	*staff1	*staff1	*
*I"Baſso E ripieno	*	*	*I"Baſso	*	*	*I"Tenore	*	*	*I"Alto	*	*	*I"Canto	*	*
*I'B rip	*	*	*I'B	*	*	*I'T	*	*	*I'A	*	*	*I'S	*	*
*Ibass	*	*	*Ibass	*	*	*Itenor	*	*	*Ialto	*	*	*Icanto	*	*
*ICvox	*	*	*ICvox	*	*	*ICvox	*	*	*ICvox	*	*	*ICvox	*	*
*clefF4	*	*	*clefF4	*	*	*clefC4	*	*	*clefC3	*	*	*clefC1	*	*
*k[]	*	*	*k[]	*	*	*k[]	*	*	*k[]	*	*	*k[]	*	*
*C:	*	*	*C:	*	*	*C:	*	*	*C:	*	*	*C:	*	*
*M2/2	*	*	*M2/2	*	*	*M2/2	*	*	*M2/2	*	*	*M2/2	*	*
*met(c|)	*	*	*met(c|)	*	*	*met(c|)	*	*	*met(c|)	*	*	*met(c|)	*	*
=1	=1	=1	=1	=1	=1	=1	=1	=1	=1	=1	=1	=1	=1	=1
*2\right	*	*	*2\right	*	*	*2\right	*	*	*2\right	*	*	*2\right	*	*
!LO:TX:a:t=allo&colon;	!	!	!LO:TX:a:t=allo&colon;	!	!	!	!	!	!	!	!	!	!	!
2c\	Ky-	.	2c\	Ky-	.	2e\	Ky-	.	2g\	Ky-	.	2g\	Ky-	.
2G\	-ri-	.	2G\	-ri-	.	2d\	-ri-	.	2f\	-ri-	.	2b\	-ri-	.
=2	=2	=2	=2	=2	=2	=2	=2	=2	=2	=2	=2	=2	=2	=2
2E\	-e	.	2E\	-e	.	2c\	-e	.	2e\	-e	.	2g\	-e	.
2G\	e-	.	2G\	e-	.	2B\	e-	.	2d\	e-	.	2g\	e-	.
=3	=3	=3	=3	=3	=3	=3	=3	=3	=3	=3	=3	=3	=3	=3
4c\	-lei-	.	4c\	-lei-	.	4c\	-lei-	.	4e\	-lei-	.	2g\	-lei-	.
4C/	.	.	4C/	.	.	8B\L	.	.	8d\L	.	.	.	.	.
.	.	.	.	.	.	8c\J	.	.	8e\J	.	.	.	.	.
4F\	.	.	4F\	.	.	4d\	.	.	4f\	.	.	2a\	.	.
4F#X\	.	.	4F#X\	.	.	4c\	.	.	4e\	.	.	.	.	.
=4	=4	=4	=4	=4	=4	=4	=4	=4	=4	=4	=4	=4	=4	=4
2G\	-son	.	2G\	-son	.	2B\	-son	.	2d\	-son	.	2g\	-son	.
2r	.	.	2r	.	.	2r	.	.	2r	.	.	2r	.	.
=5	=5	=5	=5	=5	=5	=5	=5	=5	=5	=5	=5	=5	=5	=5
!	!	!LO:DY:a:t=p.:rj	!	!	!LO:DY:a:t=p&colon;:rj	!	!	!LO:DY:a:t=p.:rj	!	!	!LO:DY:a:rj	!	!	!LO:DY:a:t=p&colon;:rj
2c\	Ky-	p	2c\	Ky-	p	2G/	Ky-	p	2g\	Ky-	p	2ee\	Ky-	p
2G\	-ri-	.	2G\	-ri-	.	2B/	-ri-	.	2f\	-ri-	.	2dd\	-ri-	.
=6	=6	=6	=6	=6	=6	=6	=6	=6	=6	=6	=6	=6	=6	=6
2E\	-e	.	2E\	-e	.	2G/	-e	.	2e\	-e	.	2cc\	-e	.
2G\	e-	.	2G\	e-	.	2G/	e-	.	2d\	e-	.	2b\	e-	.
=7	=7	=7	=7	=7	=7	=7	=7	=7	=7	=7	=7	=7	=7	=7
4c\	-lei-	.	4c\	-lei-	.	2G/	-lei-	.	4e\	-lei-	.	4cc\	-lei-	.
4C/	.	.	4C/	.	.	.	.	.	8d\L	.	.	8b\L	.	.
.	.	.	.	.	.	.	.	.	8e\J	.	.	8cc\J	.	.
4F\	.	.	4F\	.	.	2A/	.	.	4f\	.	.	4dd\	.	.
4F#X\	.	.	4F#X\	.	.	.	.	.	4e\	.	.	4cc\	.	.
!	!	!	!	!	!	!	!	!	!LO:LB:g=original	!	!	!	!	!
=8	=8	=8	=8	=8	=8	=8	=8	=8	=8	=8	=8	=8	=8	=8
2G\	-son	.	2G\	-son	.	2G/	-son	.	2d\	-son	.	2b\	-son	.
2r	.	.	2r	.	.	2r	.	.	2r	.	.	2r	.	.
!	!	!	!LO:LB:g=original	!	!	!LO:LB:g=original	!	!	!	!	!	!LO:LB:g=original	!	!
=9	=9	=9	=9	=9	=9	=9	=9	=9	=9	=9	=9	=9	=9	=9
!	!	!LO:DY:a:rj	!	!	!LO:DY:a:rj	!	!	!LO:DY:a:rj	!	!	!LO:DY:a:rj	!	!	!LO:DY:a:t=fo:rj
2E\	Ky-	f	2E\	Ky-	f	2G/	Ky-	f	2g\	Ky-	f	2cc\	Ky-	f
2C/	-ri-	.	2C/	-ri-	.	2B-X\	-ri-	.	2e\	-ri-	.	2cc\	-ri-	.
=10	=10	=10	=10	=10	=10	=10	=10	=10	=10	=10	=10	=10	=10	=10
4F\	-e	.	4F\	-e	.	4A\	-e	.	4a\	-e	.	2cc\	-e	.
4G\	.	.	4G\	.	.	4B\	.	.	4g\	.	.	.	.	.
4A\	e-	.	4A\	e-	.	4c\	e-	.	4f\	e-	.	2cc\	e-	.
4G\	.	.	4G\	.	.	4B\	.	.	4g\	.	.	.	.	.
!LO:LB:g=original	!	!	!	!	!	!	!	!	!	!	!	!	!	!
=11	=11	=11	=11	=11	=11	=11	=11	=11	=11	=11	=11	=11	=11	=11
4F\	-lei-	.	4F\	-lei-	.	4c\	-lei-	.	4a\	-lei-	.	1cc	-lei-	.
4A\	.	.	4A\	.	.	4A\	.	.	4f\	.	.	.	.	.
4c\	.	.	4c\	.	.	2G/	.	.	2e\	.	.	.	.	.
4C/	.	.	4C/	.	.	.	.	.	.	.	.	.	.	.
=12	=12	=12	=12	=12	=12	=12	=12	=12	=12	=12	=12	=12	=12	=12
2F\	-son	.	2F\	-son	.	2A\	-son	.	2f\	-son	.	2cc\	-son	.
2r	.	.	2r	.	.	2r	.	.	2r	.	.	2r	.	.
=13	=13	=13	=13	=13	=13	=13	=13	=13	=13	=13	=13	=13	=13	=13
2F#X\	Ky-	.	2F#X\	Ky-	.	2A\	Ky-	.	2d\	Ky-	.	2dd\	Ky-	.
2D\	-ri-	.	2D\	-ri-	.	2A\	-ri-	.	2f#X\	-ri-	.	2cc\	-ri-	.
=14	=14	=14	=14	=14	=14	=14	=14	=14	=14	=14	=14	=14	=14	=14
4G\	-e	.	4G\	-e	.	4Bn\	-e	.	4g\	-e	.	2dd\	-e	.
!	!	!	!	!	!	!	!	!	!LO:SIC:v:s=4f#\	!	!	!	!	!
4A\	.	.	4A\	.	.	4A\	.	.	4f\	.	.	.	.	.
4B\	e-	.	4B\	e-	.	4G\	e-	.	4g\	e-	.	2dd\	e-	.
!	!	!	!	!	!	!	!	!	!LO:SIC:v:s=4f#\	!	!	!	!	!
4A\	.	.	4A\	.	.	4A\	.	.	4f\	.	.	.	.	.
=15	=15	=15	=15	=15	=15	=15	=15	=15	=15	=15	=15	=15	=15	=15
4G\	-lei-	.	4G\	-lei-	.	2B\	-lei-	.	2g\	-lei-	.	2dd\	-lei-	.
4B\	.	.	4B\	.	.	.	.	.	.	.	.	.	.	.
!	!	!	!	!	!	!	!	!	!LO:SIC:v:s=2f#\	!	!	!	!	!
4d\	.	.	4d\	.	.	2A\	.	.	2f\	.	.	2cc\	.	.
4D/	.	.	4D/	.	.	.	.	.	.	.	.	.	.	.
=16	=16	=16	=16	=16	=16	=16	=16	=16	=16	=16	=16	=16	=16	=16
2G\	-son	.	2G\	-son	.	2B\	-son	.	2g\	-son	.	2dd\	-son	.
2r	.	.	2r	.	.	2r	.	.	2r	.	.	2r	.	.
!	!	!	!	!	!	!LO:LB:g=original	!	!	!LO:LB:g=original	!	!	!	!	!
=17	=17	=17	=17	=17	=17	=17	=17	=17	=17	=17	=17	=17	=17	=17
2G\	Ky-	.	2G\	Ky-	.	2B\	Ky-	.	2fn\	Ky-	.	2dd\	Ky-	.
2B\	-ri-	.	2B\	-ri-	.	2G/	-ri-	.	2d\	-ri-	.	2b\	-ri-	.
!	!	!	!LO:LB:g=original	!	!	!	!	!	!	!	!	!	!	!
=18	=18	=18	=18	=18	=18	=18	=18	=18	=18	=18	=18	=18	=18	=18
4c\	-e	.	4c\	-e	.	4c\	-e	.	4e\	-e	.	4cc\	-e	.
4G\	.	.	4G\	.	.	4B\	.	.	4d\	.	.	4g\	.	.
4E\	e-	.	4E\	e-	.	2c\	e-	.	4e\	e-	.	2g\	e-	.
4C\	.	.	4C\	.	.	.	.	.	4g\	.	.	.	.	.
!	!	!	!	!	!	!	!	!	!	!	!	!LO:LB:g=original	!	!
=19	=19	=19	=19	=19	=19	=19	=19	=19	=19	=19	=19	=19	=19	=19
4F\	-lei-	.	4F\	-lei-	.	2A\	-lei-	.	2f\	-lei-	.	2cc\	-lei-	.
4D\	.	.	4D\	.	.	.	.	.	.	.	.	.	.	.
2G\	.	.	2G\	.	.	2B\	.	.	2d\	.	.	2b\	.	.
=20	=20	=20	=20	=20	=20	=20	=20	=20	=20	=20	=20	=20	=20	=20
2C/	-son	.	2C/	-son	.	2c\	-son	.	2e\	-son	.	2g\	-son	.
2r	.	.	2r	.	.	2r	.	.	2r	.	.	2r	.	.
=21	=21	=21	=21	=21	=21	=21	=21	=21	=21	=21	=21	=21	=21	=21
!LO:TX:t=P:problem=t. 21-24 zapisane repetycją	!	!	!	!	!	!	!	!	!	!	!	!	!	!
2G\yy	Ky-	.	2G\	Ky-	.	2B\	Ky-	.	2f\	Ky-	.	2dd\	Ky-	.
2B\yy	-ri-	.	2B\	-ri-	.	2G/	-ri-	.	2d\	-ri-	.	2b\	-ri-	.
=22	=22	=22	=22	=22	=22	=22	=22	=22	=22	=22	=22	=22	=22	=22
4c\yy	-e	.	4c\	-e	.	4c\	-e	.	4e\	-e	.	4cc\	-e	.
4G\yy	.	.	4G\	.	.	4B\	.	.	4d\	.	.	4g\	.	.
4E\yy	e-	.	4E\	e-	.	2c\	e-	.	4e\	e-	.	2g\	e-	.
4C\yy	.	.	4C\	.	.	.	.	.	4g\	.	.	.	.	.
=23	=23	=23	=23	=23	=23	=23	=23	=23	=23	=23	=23	=23	=23	=23
4F\yy	-lei-	.	4F\	-lei-	.	2c\	-lei-	.	2f\	-lei-	.	2a\	-lei-	.
4D\yy	.	.	4D\	.	.	.	.	.	.	.	.	.	.	.
2G\yy	.	.	2G\	.	.	2G/	.	.	2d\	.	.	2b\	.	.
=24	=24	=24	=24	=24	=24	=24	=24	=24	=24	=24	=24	=24	=24	=24
2C/yy	-son	.	2C/	-son	.	1G	-son	.	1e	-son.	.	1cc	-son.	.
2ryy	.	.	2r	.	.	.	.	.	.	.	.	.	.	.
!LO:LB:g=original	!	!	!LO:LB:g=original	!	!	!LO:LB:g=original	!	!	!LO:LB:g=original	!	!	!LO:LB:g=original	!	!
==;;	==	==	==;;	==	==	==;;	==	==	==;;	==	==	==;;	==	==
*-	*-	*-	*-	*-	*-	*-	*-	*-	*-	*-	*-	*-	*-	*-
!!!system-decoration: [(s1,s2,s3,s4)]s5
!!!ENC: Berenika Jozajtis
!!!END: 2024-02-28
!!!EED: Marta Chmielewska
!!!EEV: 2024-05-02
